X: 072	% 15
T: Eighth Of January
S: Viola Ruth "Pioneer Western Folk Tunes" 1948 p.7 #2
R: reel
Z: 2019 John Chambers <jc:trillian.mit.edu>
M: 2/4
L: 1/16
K: C
V: 1 name=15
|:\
!1!e2"^Sul A"(ef) e2e2 | dedc A2(3(ABc) |\
!1!d2d!2!e !1!d2(!1!A!2!B) | cAGE C4 ::\
G2(GA) G2(EF) | GAGE D2(EF) |
G2GA G2EF | GFED C2(EF) |\
G2(GA) G2EF | GAGE D2(EF) |\
G2GA G2EF | GFED C4 :|
